packages/dnb-eufemia/assets/icons/chain_medium.svg

<svg width="24" height="24" viewBox="0 0 24 24" fill="none" xmlns="http://www.w3.org/2000/svg">
<path d="M9.42258 17.9131L8.51129 18.7776C7.68613 19.5603 6.56697 20 5.40001 20C4.23306 20 3.1139 19.5603 2.28873 18.7776C1.46357 17.9948 1 16.9332 1 15.8263C1 14.7194 1.46357 13.6578 2.28873 12.8751L6.95565 8.44729C7.73809 7.70342 8.78754 7.26689 9.89443 7.22486C11.0013 7.18283 12.0842 7.5384 12.9268 8.22056C13.7694 8.90272 14.3098 9.86127 14.4399 10.9048C14.5701 11.9483 14.2805 13 13.629 13.8499M14.7554 5.91805L15.4887 5.22244C16.3139 4.43973 17.433 4 18.6 4C19.7669 4 20.8861 4.43973 21.7113 5.22244C22.5364 6.00516 23 7.06675 23 8.17368C23 9.28061 22.5364 10.3422 21.7113 11.1249L17.0443 15.5518C16.2618 16.2953 15.2123 16.7315 14.1055 16.7733C12.9987 16.8151 11.916 16.4594 11.0736 15.7772C10.2312 15.0949 9.69106 14.1364 9.561 13.093C9.43095 12.0496 9.72056 10.998 10.372 10.1483" stroke="black" stroke-width="1.5" stroke-linecap="round" stroke-linejoin="round"/>
</svg>

<svg width="24" height="24" viewBox="0 0 24 24" fill="none" xmlns="http://www.w3.org/2000/svg"><path d="m9.423 17.913-.912.865A4.524 4.524 0 0 1 5.4 20a4.524 4.524 0 0 1-3.111-1.222A4.068 4.068 0 0 1 1 15.826c0-1.107.464-2.168 1.289-2.95l4.667-4.429a4.515 4.515 0 0 1 2.938-1.222 4.551 4.551 0 0 1 3.033.996 4.115 4.115 0 0 1 1.513 2.684 4.014 4.014 0 0 1-.811 2.945m1.126-7.932.734-.696A4.524 4.524 0 0 1 18.6 4c1.167 0 2.286.44 3.111 1.222A4.068 4.068 0 0 1 23 8.174a4.068 4.068 0 0 1-1.289 2.95l-4.667 4.428a4.516 4.516 0 0 1-2.939 1.221 4.551 4.551 0 0 1-3.031-.996 4.115 4.115 0 0 1-1.513-2.684 4.014 4.014 0 0 1 .811-2.945" stroke="#000" stroke-width="1.5" stroke-linecap="round" stroke-linejoin="round"/></svg>
